public/primaries/ShoppingCart.svg

<svg id="Layer_1" data-name="Layer 1" xmlns="http://www.w3.org/2000/svg" width="64" height="64" viewBox="0 0 64 64">
  <defs>
    <style>
      .cls-1 {
        fill-rule: evenodd;
      }
    </style>
  </defs>
  <title>Icons 200</title>
  <path class="cls-1" d="M14.66,13.1513L14.7817,14H50.953a2,2,0,0,1,1.98,2.2828L50.3212,34.5657A4,4,0,0,1,46.3613,38H21a2.0014,2.0014,0,0,0-1.9726,2.3359A2.0744,2.0744,0,0,0,21.1071,42H47.8932a2.0745,2.0745,0,0,1,2.08,1.6642A2.0014,2.0014,0,0,1,48,46H20.5164a6,6,0,0,1-5.94-5.1515l-3.876-27.1314A2,2,0,0,0,8.7209,12H4A2,2,0,1,1,4,8H8.7209A6,6,0,0,1,14.66,13.1513ZM16,52a4,4,0,1,1,4,4A4,4,0,0,1,16,52Zm28,4a4,4,0,1,1,4-4A4,4,0,0,1,44,56Z"/>
</svg>

<svg id="Layer_1" data-name="Layer 1" xmlns="http://www.w3.org/2000/svg" width="64" height="64" viewBox="0 0 64 64"><defs><style>.cls-1{fill-rule:evenodd}</style></defs><title>Icons 200</title><path class="cls-1" d="M14.66 13.151l.122.849h36.171a2 2 0 0 1 1.98 2.283l-2.612 18.283A4 4 0 0 1 46.361 38H21a2.001 2.001 0 0 0-1.973 2.336A2.074 2.074 0 0 0 21.107 42h26.786a2.075 2.075 0 0 1 2.08 1.664A2.001 2.001 0 0 1 48 46H20.516a6 6 0 0 1-5.94-5.152L10.7 13.719A2 2 0 0 0 8.72 12H4a2 2 0 1 1 0-4h4.72a6 6 0 0 1 5.94 5.151zM16 52a4 4 0 1 1 4 4 4 4 0 0 1-4-4zm28 4a4 4 0 1 1 4-4 4 4 0 0 1-4 4z"/></svg>
